icons/House_2.svg

<svg width="24" height="24" viewBox="0 0 24 24" fill="none" xmlns="http://www.w3.org/2000/svg">
<path fill-rule="evenodd" clip-rule="evenodd" d="M12.1768,4.23744c-0.0976,-0.09763 -0.2559,-0.09763 -0.3535,0l-7.07324,7.07326l0.00011,8.6893c0,0.1381 0.11193,0.25 0.25,0.25h3.49993c0.13808,0 0.25001,-0.1119 0.25,-0.25l-0.00008,-5c-0.00002,-0.9665 0.78349,-1.75 1.74998,-1.75h3c0.9665,0 1.75,0.7835 1.75,1.75l0.0001,5c0,0.1381 0.1119,0.25 0.25,0.25h3.5c0.138,0 0.25,-0.1119 0.25,-0.25v-8.6893l-1.2804,-1.2804c-0.1407,-0.14062 -0.2197,-0.33139 -0.2197,-0.5303v-4.25h-1.5v1.25c0,0.30334 -0.1827,0.57682 -0.463,0.69291c-0.2802,0.11608 -0.6028,0.05191 -0.8173,-0.16259zM20.7501,12.8107v7.1893c0,0.9665 -0.7835,1.75 -1.75,1.75h-3.5c-0.9665,0 -1.75,-0.7835 -1.75,-1.75l-0.0001,-5c0,-0.1381 -0.1119,-0.25 -0.25,-0.25h-3c-0.1381,0 -0.25,0.1119 -0.25,0.25l0.0001,5c0,0.9665 -0.78348,1.75 -1.75,1.75h-3.49993c-0.96649,0 -1.74999,-0.7835 -1.75,-1.75l-0.00009,-7.1894l-0.21969,0.2197c-0.29289,0.2929 -0.76777,0.2929 -1.06066,0c-0.29289,-0.2929 -0.29289,-0.7677 0,-1.0606l1.5,-1.5l7.29287,-7.29292c0.6834,-0.68342 1.7915,-0.68342 2.4749,0.00001l1.5125,1.51252v-0.18931c0,-0.41422 0.3358,-0.75 0.75,-0.75h3c0.4142,0 0.75,0.33578 0.75,0.75v4.68933l1.2804,1.28037v0l1.5,1.5c0.2929,0.2929 0.2929,0.7677 0,1.0606c-0.2929,0.2929 -0.7678,0.2929 -1.0607,0z" fill="#002B51"/>
</svg>

<svg width="24" height="24" viewBox="0 0 24 24" fill="none" xmlns="http://www.w3.org/2000/svg">
<path fill-rule="evenodd" clip-rule="evenodd" d="M12.1768 4.23744C12.0792 4.13981 11.9209 4.13981 11.8233 4.23744L4.75006 11.3107L4.75017 20C4.75017 20.1381 4.8621 20.25 5.00017 20.25H8.5001C8.63818 20.25 8.75011 20.1381 8.7501 20L8.75002 15C8.75 14.0335 9.53351 13.25 10.5 13.25H13.5C14.4665 13.25 15.25 14.0335 15.25 15L15.2501 20C15.2501 20.1381 15.362 20.25 15.5001 20.25H19.0001C19.1381 20.25 19.2501 20.1381 19.2501 20V11.3107L17.9697 10.0303C17.829 9.88968 17.75 9.69891 17.75 9.5V5.25H16.25V6.5C16.25 6.80334 16.0673 7.07682 15.787 7.19291C15.5068 7.30899 15.1842 7.24482 14.9697 7.03032L12.1768 4.23744ZM20.7501 12.8107V20C20.7501 20.9665 19.9666 21.75 19.0001 21.75H15.5001C14.5336 21.75 13.7501 20.9665 13.7501 20L13.75 15C13.75 14.8619 13.6381 14.75 13.5 14.75H10.5C10.3619 14.75 10.25 14.8619 10.25 15L10.2501 20C10.2501 20.9665 9.46662 21.75 8.5001 21.75H5.00017C4.03368 21.75 3.25018 20.9665 3.25017 20L3.25008 12.8106L3.03039 13.0303C2.7375 13.3232 2.26262 13.3232 1.96973 13.0303C1.67684 12.7374 1.67684 12.2626 1.96973 11.9697L3.46973 10.4697L10.7626 3.17678C11.446 2.49336 12.5541 2.49336 13.2375 3.17679L14.75 4.68931V4.5C14.75 4.08578 15.0858 3.75 15.5 3.75H18.5C18.9142 3.75 19.25 4.08578 19.25 4.5V9.18933L20.5304 10.4697L20.5304 10.4697L22.0304 11.9697C22.3233 12.2626 22.3233 12.7374 22.0304 13.0303C21.7375 13.3232 21.2626 13.3232 20.9697 13.0303L20.7501 12.8107Z" fill="#002B51"/>
</svg>
